X:7848
T:Beautiful brown eyes
C:Stephen C. Foster
O:USA
R:Waltz
Z:Transcribed by Frank Nordberg - http://www.musicaviva.com
F:http://abc.musicaviva.com/tunes/foster-stephen-c/foster-brown-eyes/foster-brown-eyes.abc
M:3/4
L:1/4
K:C
"C"EEE|"C"CDE|"F"F3|"F"F3|
"C"EEE|"C"CDE|"G7"D3|"G7"G3|
"C"EEE|"C"CDE|"F"F3|"F"F2F|
"G7"GDE|"G7"FED|"C"C3-"C"C2z|]
W:
W:
W:  From Musica Viva - http://www.musicaviva.com
W:  the Internet center for free sheet music downloads.
